!!!COM: Music21
!!!OTL: Pasacorredoiras da Fonsagrada
!!!OMV: pezas_pasacorredoiras_pasacorredoiras-da-fonsagrada_pasacorredoiras-da-fonsagrada-partitura-1.musicxml
**kern
*I"Gaita
*I'Bag
*clefG^2
*k[]
*M2/4
*MM146
=1
!LO:TX:a:t=[quarter]=146
4r
8.eeL
16ffJk
=||
4.gg
8gg
=
4aa
4gg
=
8aaL
[8ggJ
4gg_
=
4gg]
8eeL
8ffJ
=
4.gg
8gg
=
4aa
4gg
=
16aaLL
16ggJ
[8ffJ
4ff_
=
4ff]
8ddL
8eeJ
=
4.ff
8ff
=
4gg
4ff
=
8ggL
[8ffJ
4ff_
!!linebreak:original
=
4ff]
8ddL
8eeJ
=
4.ff
8ff
=
4bb
4aa
=
[2gg
=
4gg]
8eeL
8ffJ
=
4.gg
8gg
=
4aa
4gg
=
8aaL
[8ggJ
4gg_
=
4gg]
8eeL
8ffJ
=
4.gg
8gg
=
4aa
4gg
=
[2bb
=
4bb]
8ggL
8aaJ
=
4.bb
8ccc
!!linebreak:original
=
4bb
4aa
=
4.gg
[8gg
=
8ggL]
8ggJ
8aaL
8ggJ
=
[2ff
=
8ffL]
8ffJ
8ggL
8ffJ
=
[2ee
=
8eeL]
8eeJ
8ffL
8ggJ
=
4aa
[4aa
=
8aaL]
8aaJ
8bbL
8aaJ
=
4gg
[4gg
=
8ggL]
8ggJ
8.aaL
16ggJk
=
4ff
8ddL
8eeJ
!!linebreak:original
=
8ffL
8aaJ
[4gg
=
8ggL]
8eeJ
8ffL
8ggJ
=
4aa
[4aa
=
8aaL]
8aaJ
8.bbL
16aaJk
=
4gg
[4gg
=
8ggL]
8ggJ
8.aaL
16ggJk
=
4.ff
8aa
=
4gg
8ffL
16ggL
16ffJJ
=
4ee
16ggLL
16ff
16ee
16ddJJ
=||
[2cc
=
4cc]
8.eeL
16ffJk
=||
[2cc
!!linebreak:original
=
4cc]
4r
==
*-
